48x48/devices/audio-subwoofer.svg

<?xml version="1.0" encoding="UTF-8" standalone="no"?>
<!-- Created with Inkscape (http://www.inkscape.org/) -->

<svg
   xmlns:dc="http://purl.org/dc/elements/1.1/"
   xmlns:cc="http://creativecommons.org/ns#"
   xmlns:rdf="http://www.w3.org/1999/02/22-rdf-syntax-ns#"
   xmlns:svg="http://www.w3.org/2000/svg"
   xmlns="http://www.w3.org/2000/svg"
   xmlns:sodipodi="http://sodipodi.sourceforge.net/DTD/sodipodi-0.dtd"
   xmlns:inkscape="http://www.inkscape.org/namespaces/inkscape"
   width="48"
   height="48"
   viewBox="0 0 12.7 12.7"
   version="1.1"
   id="svg11382"
   inkscape:version="0.92.4 (5da689c313, 2019-01-14)"
   sodipodi:docname="audio-subwoofer.svg">
  <defs
     id="defs11376" />
  <sodipodi:namedview
     id="base"
     pagecolor="#ffffff"
     bordercolor="#666666"
     borderopacity="1.0"
     inkscape:pageopacity="0.0"
     inkscape:pageshadow="2"
     inkscape:zoom="1"
     inkscape:cx="24"
     inkscape:cy="23.999962"
     inkscape:document-units="px"
     inkscape:current-layer="layer1"
     showgrid="false"
     units="px"
     inkscape:window-width="1296"
     inkscape:window-height="704"
     inkscape:window-x="70"
     inkscape:window-y="27"
     inkscape:window-maximized="1">
    <inkscape:grid
       type="xygrid"
       id="grid11927" />
  </sodipodi:namedview>
  <metadata
     id="metadata11379">
    <rdf:RDF>
      <cc:Work
         rdf:about="">
        <dc:format>image/svg+xml</dc:format>
        <dc:type
           rdf:resource="http://purl.org/dc/dcmitype/StillImage" />
        <dc:title></dc:title>
      </cc:Work>
    </rdf:RDF>
  </metadata>
  <g
     inkscape:label="Layer 1"
     inkscape:groupmode="layer"
     id="layer1"
     transform="translate(0,-284.3)">
    <path
       style="opacity:1;vector-effect:none;fill:#808080;fill-opacity:1;stroke:none;stroke-width:1.00199997;stroke-linecap:butt;stroke-linejoin:miter;stroke-miterlimit:4;stroke-dasharray:none;stroke-dashoffset:6.5999999;stroke-opacity:1"
       d="M 24 11 A 12.999999 12.999999 0 0 0 19.441406 11.84375 L 19.441406 11.841797 A 12.999999 12.999999 0 0 0 19.404297 11.861328 A 12.999999 12.999999 0 0 0 18.316406 12.332031 A 12.999999 12.999999 0 0 0 18.201172 12.386719 A 12.999999 12.999999 0 0 0 17.171875 12.962891 A 12.999999 12.999999 0 0 0 17.078125 13.019531 A 12.999999 12.999999 0 0 0 16.142578 13.669922 A 12.999999 12.999999 0 0 0 15.980469 13.792969 A 12.999999 12.999999 0 0 0 15.203125 14.458984 A 12.999999 12.999999 0 0 0 14.960938 14.683594 A 12.999999 12.999999 0 0 0 14.308594 15.369141 A 12.999999 12.999999 0 0 0 14.072266 15.636719 A 12.999999 12.999999 0 0 0 13.523438 16.341797 A 12.999999 12.999999 0 0 0 13.257812 16.712891 A 12.999999 12.999999 0 0 0 12.826172 17.398438 A 12.999999 12.999999 0 0 0 12.576172 17.832031 A 12.999999 12.999999 0 0 0 12.246094 18.490234 A 12.999999 12.999999 0 0 0 11.998047 19.048828 A 12.999999 12.999999 0 0 0 11.833984 19.441406 L 11.847656 19.445312 A 12.999999 12.999999 0 0 0 11 24.001953 A 12.999999 12.999999 0 0 0 11.845703 28.560547 L 11.841797 28.560547 A 12.999999 12.999999 0 0 0 11.859375 28.59375 A 12.999999 12.999999 0 0 0 12.308594 29.640625 A 12.999999 12.999999 0 0 0 12.400391 29.828125 A 12.999999 12.999999 0 0 0 12.933594 30.785156 A 12.999999 12.999999 0 0 0 13.033203 30.949219 A 12.999999 12.999999 0 0 0 13.666016 31.853516 A 12.999999 12.999999 0 0 0 13.791016 32.017578 A 12.999999 12.999999 0 0 0 14.455078 32.796875 A 12.999999 12.999999 0 0 0 14.683594 33.041016 A 12.999999 12.999999 0 0 0 15.341797 33.671875 A 12.999999 12.999999 0 0 0 15.650391 33.941406 A 12.999999 12.999999 0 0 0 16.332031 34.472656 A 12.999999 12.999999 0 0 0 16.712891 34.744141 A 12.999999 12.999999 0 0 0 17.375 35.162109 A 12.999999 12.999999 0 0 0 17.84375 35.429688 A 12.999999 12.999999 0 0 0 18.46875 35.744141 A 12.999999 12.999999 0 0 0 19.072266 36.011719 A 12.999999 12.999999 0 0 0 19.439453 36.166016 L 19.443359 36.150391 A 12.999999 12.999999 0 0 0 24 36.998047 A 12.999999 12.999999 0 0 0 28.558594 36.154297 L 28.558594 36.15625 A 12.999999 12.999999 0 0 0 28.595703 36.136719 A 12.999999 12.999999 0 0 0 29.671875 35.669922 A 12.999999 12.999999 0 0 0 29.806641 35.605469 A 12.999999 12.999999 0 0 0 30.802734 35.048828 A 12.999999 12.999999 0 0 0 30.941406 34.966797 A 12.999999 12.999999 0 0 0 31.832031 34.345703 A 12.999999 12.999999 0 0 0 32.037109 34.189453 A 12.999999 12.999999 0 0 0 32.78125 33.554688 A 12.999999 12.999999 0 0 0 33.042969 33.308594 A 12.999999 12.999999 0 0 0 33.677734 32.642578 A 12.999999 12.999999 0 0 0 33.941406 32.34375 A 12.999999 12.999999 0 0 0 34.451172 31.691406 A 12.999999 12.999999 0 0 0 34.757812 31.257812 A 12.999999 12.999999 0 0 0 35.146484 30.640625 A 12.999999 12.999999 0 0 0 35.439453 30.132812 A 12.999999 12.999999 0 0 0 35.730469 29.548828 A 12.999999 12.999999 0 0 0 36.013672 28.916016 A 12.999999 12.999999 0 0 0 36.166016 28.556641 L 36.152344 28.552734 A 12.999999 12.999999 0 0 0 37 23.996094 A 12.999999 12.999999 0 0 0 36.154297 19.4375 L 36.158203 19.4375 A 12.999999 12.999999 0 0 0 36.140625 19.404297 A 12.999999 12.999999 0 0 0 35.669922 18.316406 A 12.999999 12.999999 0 0 0 35.615234 18.201172 A 12.999999 12.999999 0 0 0 35.041016 17.171875 A 12.999999 12.999999 0 0 0 34.982422 17.076172 A 12.999999 12.999999 0 0 0 34.332031 16.142578 A 12.999999 12.999999 0 0 0 34.210938 15.982422 A 12.999999 12.999999 0 0 0 33.521484 15.177734 A 12.999999 12.999999 0 0 0 33.335938 14.978516 A 12.999999 12.999999 0 0 0 32.628906 14.302734 A 12.999999 12.999999 0 0 0 32.367188 14.074219 A 12.999999 12.999999 0 0 0 31.640625 13.505859 A 12.999999 12.999999 0 0 0 31.304688 13.267578 A 12.999999 12.999999 0 0 0 30.597656 12.822266 A 12.999999 12.999999 0 0 0 30.171875 12.578125 A 12.999999 12.999999 0 0 0 29.509766 12.246094 A 12.999999 12.999999 0 0 0 28.9375 11.992188 A 12.999999 12.999999 0 0 0 28.560547 11.832031 L 28.556641 11.847656 A 12.999999 12.999999 0 0 0 24 11 z M 24 14 A 9.9999997 9.9999997 0 0 1 34 24 A 9.9999997 9.9999997 0 0 1 24 34 A 9.9999997 9.9999997 0 0 1 14 24 A 9.9999997 9.9999997 0 0 1 24 14 z "
       transform="matrix(0.26458333,0,0,0.26458333,0,284.3)"
       id="path13990" />
    <circle
       style="opacity:1;vector-effect:none;fill:#808080;fill-opacity:1;stroke:none;stroke-width:0.26511249;stroke-linecap:butt;stroke-linejoin:miter;stroke-miterlimit:4;stroke-dasharray:none;stroke-dashoffset:6.5999999;stroke-opacity:1"
       id="path13370"
       cx="6.3499999"
       cy="290.64999"
       r="1.0583333" />
    <rect
       style="opacity:1;vector-effect:none;fill:none;fill-opacity:1;stroke:#808080;stroke-width:0.79375;stroke-linecap:butt;stroke-linejoin:miter;stroke-miterlimit:4;stroke-dasharray:none;stroke-dashoffset:6.5999999;stroke-opacity:1"
       id="rect13997"
       width="9.7895832"
       height="9.7895832"
       x="1.4552083"
       y="285.75522"
       rx="0.97895831"
       ry="0.97895831" />
    <circle
       style="opacity:1;vector-effect:none;fill:#808080;fill-opacity:1;stroke:none;stroke-width:0.79374999;stroke-linecap:butt;stroke-linejoin:miter;stroke-miterlimit:4;stroke-dasharray:none;stroke-dashoffset:6.5999999;stroke-opacity:1"
       id="path14004"
       cx="3.175"
       cy="287.47501"
       r="0.5291667" />
    <circle
       style="opacity:1;vector-effect:none;fill:#808080;fill-opacity:1;stroke:none;stroke-width:0.79374999;stroke-linecap:butt;stroke-linejoin:miter;stroke-miterlimit:4;stroke-dasharray:none;stroke-dashoffset:6.5999999;stroke-opacity:1"
       id="path14004-1"
       cx="9.5249996"
       cy="287.47501"
       r="0.52916676" />
    <circle
       style="opacity:1;vector-effect:none;fill:#808080;fill-opacity:1;stroke:none;stroke-width:0.79374999;stroke-linecap:butt;stroke-linejoin:miter;stroke-miterlimit:4;stroke-dasharray:none;stroke-dashoffset:6.5999999;stroke-opacity:1"
       id="path14004-2"
       cx="3.175"
       cy="293.82501"
       r="0.52916676" />
    <circle
       style="opacity:1;vector-effect:none;fill:#808080;fill-opacity:1;stroke:none;stroke-width:0.79374999;stroke-linecap:butt;stroke-linejoin:miter;stroke-miterlimit:4;stroke-dasharray:none;stroke-dashoffset:6.5999999;stroke-opacity:1"
       id="path14004-1-7"
       cx="9.5249996"
       cy="293.82501"
       r="0.52916682" />
  </g>
</svg>

<svg xmlns="http://www.w3.org/2000/svg" width="48" height="48" viewBox="0 0 12.7 12.7"><g transform="translate(0 -284.3)"><path style="opacity:1;vector-effect:none;fill:gray;fill-opacity:1;stroke:none;stroke-width:1.00199997;stroke-linecap:butt;stroke-linejoin:miter;stroke-miterlimit:4;stroke-dasharray:none;stroke-dashoffset:6.5999999;stroke-opacity:1" d="M24 11a13 13 0 0 0-4.559.844v-.002a13 13 0 0 0-.037.02 13 13 0 0 0-1.088.47 13 13 0 0 0-.115.055 13 13 0 0 0-1.03.576 13 13 0 0 0-.093.057 13 13 0 0 0-.935.65 13 13 0 0 0-.163.123 13 13 0 0 0-.777.666 13 13 0 0 0-.242.225 13 13 0 0 0-.652.685 13 13 0 0 0-.237.268 13 13 0 0 0-.549.705 13 13 0 0 0-.265.37 13 13 0 0 0-.432.686 13 13 0 0 0-.25.434 13 13 0 0 0-.33.658 13 13 0 0 0-.248.559 13 13 0 0 0-.164.392l.014.004A13 13 0 0 0 11 24.002a13 13 0 0 0 .846 4.559h-.004a13 13 0 0 0 .017.033 13 13 0 0 0 .45 1.047 13 13 0 0 0 .091.187 13 13 0 0 0 .534.957 13 13 0 0 0 .1.164 13 13 0 0 0 .632.905 13 13 0 0 0 .125.164 13 13 0 0 0 .664.779 13 13 0 0 0 .229.244 13 13 0 0 0 .658.63 13 13 0 0 0 .308.27 13 13 0 0 0 .682.532 13 13 0 0 0 .38.271 13 13 0 0 0 .663.418 13 13 0 0 0 .469.268 13 13 0 0 0 .625.314 13 13 0 0 0 .603.268 13 13 0 0 0 .367.154l.004-.016a13 13 0 0 0 4.557.848 13 13 0 0 0 4.559-.844v.002a13 13 0 0 0 .037-.02 13 13 0 0 0 1.076-.466 13 13 0 0 0 .135-.065 13 13 0 0 0 .996-.556 13 13 0 0 0 .138-.082 13 13 0 0 0 .891-.621 13 13 0 0 0 .205-.157 13 13 0 0 0 .744-.634 13 13 0 0 0 .262-.246 13 13 0 0 0 .635-.666 13 13 0 0 0 .263-.3 13 13 0 0 0 .51-.652 13 13 0 0 0 .307-.433 13 13 0 0 0 .388-.617 13 13 0 0 0 .293-.508 13 13 0 0 0 .291-.584 13 13 0 0 0 .284-.633 13 13 0 0 0 .152-.36l-.014-.003A13 13 0 0 0 37 23.996a13 13 0 0 0-.846-4.558h.004a13 13 0 0 0-.017-.034 13 13 0 0 0-.471-1.088 13 13 0 0 0-.055-.115 13 13 0 0 0-.574-1.03 13 13 0 0 0-.059-.095 13 13 0 0 0-.65-.933 13 13 0 0 0-.121-.16 13 13 0 0 0-.69-.805 13 13 0 0 0-.185-.2 13 13 0 0 0-.707-.675 13 13 0 0 0-.262-.229 13 13 0 0 0-.726-.568 13 13 0 0 0-.336-.238 13 13 0 0 0-.707-.446 13 13 0 0 0-.426-.244 13 13 0 0 0-.662-.332 13 13 0 0 0-.573-.254 13 13 0 0 0-.376-.16l-.004.016A13 13 0 0 0 24 11zm0 3a10 10 0 0 1 10 10 10 10 0 0 1-10 10 10 10 0 0 1-10-10 10 10 0 0 1 10-10z" transform="translate(0 284.3) scale(.26458)"/><circle style="opacity:1;vector-effect:none;fill:gray;fill-opacity:1;stroke:none;stroke-width:.26511249;stroke-linecap:butt;stroke-linejoin:miter;stroke-miterlimit:4;stroke-dasharray:none;stroke-dashoffset:6.5999999;stroke-opacity:1" cx="6.35" cy="290.65" r="1.058"/><rect style="opacity:1;vector-effect:none;fill:none;fill-opacity:1;stroke:gray;stroke-width:.79375;stroke-linecap:butt;stroke-linejoin:miter;stroke-miterlimit:4;stroke-dasharray:none;stroke-dashoffset:6.5999999;stroke-opacity:1" width="9.79" height="9.79" x="1.455" y="285.755" rx=".979" ry=".979"/><circle style="opacity:1;vector-effect:none;fill:gray;fill-opacity:1;stroke:none;stroke-width:.79374999;stroke-linecap:butt;stroke-linejoin:miter;stroke-miterlimit:4;stroke-dasharray:none;stroke-dashoffset:6.5999999;stroke-opacity:1" cx="3.175" cy="287.475" r=".529"/><circle style="opacity:1;vector-effect:none;fill:gray;fill-opacity:1;stroke:none;stroke-width:.79374999;stroke-linecap:butt;stroke-linejoin:miter;stroke-miterlimit:4;stroke-dasharray:none;stroke-dashoffset:6.5999999;stroke-opacity:1" cx="9.525" cy="287.475" r=".529"/><circle style="opacity:1;vector-effect:none;fill:gray;fill-opacity:1;stroke:none;stroke-width:.79374999;stroke-linecap:butt;stroke-linejoin:miter;stroke-miterlimit:4;stroke-dasharray:none;stroke-dashoffset:6.5999999;stroke-opacity:1" cx="3.175" cy="293.825" r=".529"/><circle style="opacity:1;vector-effect:none;fill:gray;fill-opacity:1;stroke:none;stroke-width:.79374999;stroke-linecap:butt;stroke-linejoin:miter;stroke-miterlimit:4;stroke-dasharray:none;stroke-dashoffset:6.5999999;stroke-opacity:1" cx="9.525" cy="293.825" r=".529"/></g></svg>
